public/giveawaysicon.svg

<svg width="24" height="24" viewBox="0 0 24 24" fill="none" xmlns="http://www.w3.org/2000/svg">
<path d="M22.8587 11.2788L19.7271 9.46151C20.0014 9.22149 20.2643 8.9129 20.4586 8.57001C21.4072 6.93562 20.8472 4.83261 19.2013 3.88397C18.2184 3.31251 17.064 3.31251 16.0925 3.72396L16.104 3.71253L15.0982 4.15828L14.9725 3.06106L14.961 3.07249C14.8582 2.03242 14.2524 1.02663 13.2695 0.455164C12.4788 0.00340564 11.5418 -0.117952 10.6621 0.11748C9.78248 0.352912 9.03133 0.926095 8.57203 1.71239C8.37773 2.05528 8.252 2.43244 8.18343 2.79818L5.04035 0.992344C3.94313 0.363729 2.54875 0.729469 1.92013 1.82669L0.205729 4.79832C0.130111 4.92782 0.0810423 5.07108 0.0613871 5.21974C0.0417319 5.3684 0.0518836 5.51949 0.0912498 5.66419C0.130616 5.80889 0.198408 5.9443 0.29067 6.06251C0.382932 6.18073 0.497815 6.27938 0.628615 6.35272L2.6059 7.49565L7.42909 10.2844H0V21.7138C0 22.32 0.240832 22.9015 0.669517 23.3301C1.0982 23.7588 1.67962 23.9997 2.28587 23.9997H20.5729C21.8415 23.9997 22.8587 22.9825 22.8587 21.7138V15.8505L23.6931 14.399C24.3217 13.3018 23.956 11.9074 22.8587 11.2788ZM16.504 6.28414C16.8126 5.71267 17.5212 5.55266 18.0584 5.86126C18.607 6.18128 18.8013 6.85561 18.4813 7.42708C18.1613 7.99855 17.4641 8.15856 16.9155 7.84996C16.3783 7.52994 16.184 6.85561 16.504 6.28414ZM13.7952 8.68431L21.7158 13.2561L20.5729 15.2333L12.6523 10.6616L13.7952 8.68431ZM10.2864 21.7138H2.28587V12.5703H10.2864V21.7138ZM10.675 9.51865L2.75448 4.94691L3.89741 2.96962L11.818 7.54137L10.675 9.51865ZM10.9836 4.42115C10.435 4.10113 10.2521 3.4268 10.5607 2.85533C10.8579 2.28386 11.5779 2.12385 12.1266 2.43244C12.6752 2.75247 12.858 3.4268 12.538 3.99827C12.2294 4.56974 11.5322 4.72975 10.9836 4.42115ZM12.5723 21.7138V13.2561L20.5729 17.8735V21.7138H12.5723Z" fill="url(#paint0_linear_315_222)"/>
<defs>
<linearGradient id="paint0_linear_315_222" x1="-25" y1="-15.4998" x2="35.9994" y2="28.0004" gradientUnits="userSpaceOnUse">
<stop stop-color="#DED8FF"/>
<stop offset="1" stop-color="#7B48ED"/>
</linearGradient>
</defs>
</svg>

<svg xmlns="http://www.w3.org/2000/svg" width="24" height="24" fill="none" xmlns:v="https://vecta.io/nano"><path d="M22.859 11.279l-3.132-1.817a3.51 3.51 0 0 0 .732-.892 3.43 3.43 0 0 0-1.257-4.686c-.983-.571-2.137-.571-3.109-.16l.011-.011-1.006.446-.126-1.097-.011.011c-.103-1.04-.709-2.046-1.691-2.617-.791-.452-1.728-.573-2.607-.338s-1.631.809-2.09 1.595a3.54 3.54 0 0 0-.389 1.086L5.04.992a2.28 2.28 0 0 0-3.12.834L.206 4.798a1.13 1.13 0 0 0-.114.866 1.13 1.13 0 0 0 .537.689l1.977 1.143 4.823 2.789H0v11.429c0 .606.241 1.188.67 1.616s1.01.67 1.616.67h18.287a2.28 2.28 0 0 0 2.286-2.286v-5.863l.834-1.452a2.28 2.28 0 0 0-.834-3.12zm-6.355-4.995c.309-.571 1.017-.731 1.554-.423a1.14 1.14 0 0 1 .423 1.566c-.32.571-1.017.731-1.566.423-.537-.32-.732-.994-.412-1.566zm-2.709 2.4l7.921 4.572-1.143 1.977-7.921-4.572 1.143-1.977zm-3.509 13.029H2.286V12.57h8.001v9.144zm.389-12.195L2.754 4.947 3.897 2.97l7.921 4.572-1.143 1.977zm.309-5.097c-.549-.32-.731-.994-.423-1.566.297-.571 1.017-.731 1.566-.423.549.32.731.994.411 1.566-.309.571-1.006.731-1.554.423zm1.589 17.293v-8.458l8.001 4.617v3.84h-8.001z" fill="url(#A)"/><defs><linearGradient id="A" x1="-25" y1="-15.5" x2="35.999" y2="28" gradientUnits="userSpaceOnUse"><stop stop-color="#ded8ff"/><stop offset="1" stop-color="#7b48ed"/></linearGradient></defs></svg>
